X: 5
T:The Farmer's Farewell to the Banquet
M:4/4
L:1/16
C:Trad. Swedish
K:D
A2Bc|d4 D2D2 D4gfed|"sl"a4 A2A2 A6g2|f2e2 d2e2 f2a2 g2f2|e2d2c2B2 A4 A2B
c|d4
 D2D2D4 gfed|"sl"a4A2A2A6g2|f2a2 f2d2 e2g2 e2c2|d4d2d2d4:|:defg|a4a2a2a4
bagf|
g
4A2A2A6g2|f2e2 d2e2 f2a2 g2f2|e2d2c2B2 A4 A2Bc|d4 D2D2 D4 gfed|"sl"a4 A2
A2A6
g2|f2a2 f2d2 e2g2 e2c2|d4 d2d2d4:|
